justvector/livejournal.svg

<?xml version="1.0" encoding="iso-8859-1"?>
<!-- Generator: Adobe Illustrator 15.0.0, SVG Export Plug-In . SVG Version: 6.00 Build 0)  -->
<!DOCTYPE svg PUBLIC "-//W3C//DTD SVG 1.1//EN" "http://www.w3.org/Graphics/SVG/1.1/DTD/svg11.dtd">
<svg version="1.1" id="Layer_1" xmlns="http://www.w3.org/2000/svg" xmlns:xlink="http://www.w3.org/1999/xlink" x="0px" y="0px"
	 width="100px" height="100px" viewBox="0 0 100 100" style="enable-background:new 0 0 100 100;" xml:space="preserve">
<path id="LiveJournal" d="M83.841,93.029c-0.104,0-0.207-0.02-0.305-0.062L53.119,80.264c-0.246-0.103-0.422-0.322-0.473-0.582
	c-0.049-0.262,0.035-0.529,0.227-0.715c3.496-3.397,5.421-7.948,5.421-12.817c0-2.062-0.35-4.087-1.041-6.02
	c-0.03-0.085-0.046-0.17-0.047-0.255L34.998,30.068c-4.462,3.861-8.684,9.629-8.207,15.252c0.037,0.436-0.286,0.819-0.723,0.854
	c-0.424,0.034-0.816-0.284-0.854-0.72c-0.568-6.713,4.746-13.465,9.908-17.543c6.219-4.914,12.965-7.016,17.605-5.49
	c0.414,0.136,0.641,0.582,0.504,0.999c-0.136,0.414-0.579,0.641-0.998,0.501c-4.05-1.33-10.326,0.685-16.014,5.139L58.901,59.5
	c5.855,3.592,13.715,3.408,19.412-0.497c0.223-0.155,0.51-0.183,0.761-0.074c0.251,0.109,0.425,0.336,0.469,0.604l5.078,32.584
	c0.044,0.283-0.067,0.566-0.292,0.745C84.188,92.971,84.016,93.029,83.841,93.029z M54.799,79.25l28.044,11.713l-4.678-29.99
	c-5.653,3.37-13.011,3.581-18.837,0.582c0.364,1.498,0.548,3.039,0.548,4.595C59.876,71.054,58.081,75.661,54.799,79.25z
	 M19.949,37.601c-0.406,0-0.752-0.312-0.787-0.724c-0.568-6.713,4.744-13.461,9.908-17.541c6.219-4.912,12.965-7.016,17.605-5.492
	c0.414,0.138,0.641,0.584,0.504,0.998c-0.137,0.416-0.578,0.646-0.998,0.506c-4.084-1.341-10.412,0.711-16.132,5.23
	c-4.839,3.823-9.827,10.078-9.312,16.163c0.037,0.437-0.285,0.819-0.722,0.854C19.994,37.601,19.972,37.601,19.949,37.601z
	 M73.428,87.89c1.15-3.956,4.431-7.003,8.517-7.815l1.896,12.164L73.428,87.89L73.428,87.89z M37.934,8.563
	c-10.313,0-26.333,14.583-20.551,24.834l34.086,45.32l32.372,13.521l-5.522-35.422L44.232,11.688
	C42.8,9.502,40.551,8.563,37.934,8.563 M37.934,5.4c3.802,0,6.951,1.582,8.881,4.459L80.842,54.91
	c0.313,0.416,0.521,0.904,0.602,1.421l5.522,35.419c0.177,1.133-0.272,2.271-1.172,2.977c-0.567,0.445-1.256,0.674-1.953,0.674
	c-0.412,0-0.826-0.081-1.221-0.244L50.25,81.635c-0.52-0.216-0.972-0.566-1.31-1.018L14.854,35.299
	c-0.083-0.113-0.159-0.227-0.227-0.349c-2.472-4.381-2.12-9.728,0.99-15.054C20.287,11.904,30.297,5.4,37.934,5.4L37.934,5.4z"/>
</svg>

<?xml version="1.0" encoding="UTF-8" standalone="no"?>
<!DOCTYPE svg PUBLIC "-//W3C//DTD SVG 1.1//EN" "http://www.w3.org/Graphics/SVG/1.1/DTD/svg11.dtd">
<svg width="100%" height="100%" viewBox="0 0 100 100" version="1.1" xmlns="http://www.w3.org/2000/svg" xmlns:xlink="http://www.w3.org/1999/xlink" xml:space="preserve" xmlns:serif="http://www.serif.com/" style="fill-rule:evenodd;clip-rule:evenodd;stroke-linejoin:round;stroke-miterlimit:2;">
    <path id="LiveJournal" d="M83.841,93.029C83.737,93.029 83.634,93.009 83.536,92.967L53.119,80.264C52.873,80.161 52.697,79.942 52.646,79.682C52.597,79.42 52.681,79.153 52.873,78.967C56.369,75.57 29.96,31.989 35.122,27.911C41.341,22.997 72.616,62.908 78.313,59.003C78.536,58.848 78.823,58.82 79.074,58.929C79.325,59.038 79.499,59.265 79.543,59.533L84.621,92.117C84.665,92.4 84.554,92.683 84.329,92.862C84.188,92.971 84.016,93.029 83.841,93.029ZM80.827,90.98L83.841,92.239L80.827,90.98ZM37.934,8.563C27.621,8.563 11.601,23.146 17.383,33.397L51.469,78.717L83.841,92.238L78.319,56.816L44.232,11.688C42.8,9.502 40.551,8.563 37.934,8.563" style="fill-rule:nonzero;"/>
</svg>
